; generated by Slic3r 1.2.9 on 2016-06-21 at 20:09:06

; external perimeters extrusion width = 0.45mm
; perimeters extrusion width = 0.45mm
; infill extrusion width = 0.45mm
; solid infill extrusion width = 0.45mm
; top infill extrusion width = 0.45mm

M107
M190 S50 ; set bed temperature
M201 X1000 Y1000 E600
M109 S210
M92 E161.3
G28
G92 E0.0
G1 X8.0 F2000
G1 Y60.0 E4.0  F1000.0
G1 Y100.0 E8.5  F1000.0
G92 E0.0
G21 ; set units to millimeters
G90 ; use absolute coordinates
M83 ; use relative distances for extrusion
G1 E-1.50000 F1800.00000
G1 Z0.350 F12000.000
G1 X86.397 Y86.420 F12000.000
G1 E1.50000 F1800.00000
G1 E0.04165 F1800.000 ; pressure advance
G1 X86.766 Y86.087 E0.02711 F1200.000
G1 X87.104 Y85.841 E0.02281
G1 X87.534 Y85.593 E0.02708
G1 X87.916 Y85.423 E0.02281
G1 X88.388 Y85.270 E0.02707
G1 X88.797 Y85.183 E0.02281
G1 X89.291 Y85.131 E0.02709
G1 X110.709 Y85.131 E1.16839
G1 X111.203 Y85.183 E0.02709
G1 X111.612 Y85.270 E0.02281
G1 X112.084 Y85.423 E0.02708
G1 X112.466 Y85.593 E0.02281
G1 X112.896 Y85.841 E0.02708
G1 X113.234 Y86.087 E0.02281
G1 X113.604 Y86.420 E0.02711
G1 X113.883 Y86.730 E0.02281
G1 X114.175 Y87.132 E0.02706
G1 X114.384 Y87.494 E0.02281
G1 X114.586 Y87.947 E0.02709
G1 X114.715 Y88.345 E0.02281
G1 X114.818 Y88.831 E0.02708
G1 X114.875 Y89.495 E0.03636
G1 X114.875 Y112.495 E1.25468
G1 X114.484 Y113.801 E0.07440
G1 X113.438 Y114.677 E0.07440
G1 X112.500 Y114.870 E0.05222
G1 X87.500 Y114.870 E1.36378
G1 X86.194 Y114.478 E0.07440
G1 X85.318 Y113.432 E0.07440
G1 X85.125 Y112.495 E0.05222
G1 X85.125 Y89.495 E1.25468
G1 X85.182 Y88.831 E0.03636
G1 X85.285 Y88.345 E0.02708
G1 X85.414 Y87.947 E0.02281
G1 X85.616 Y87.494 E0.02709
G1 X85.826 Y87.132 E0.02281
G1 X86.117 Y86.730 E0.02706
G1 X86.357 Y86.464 E0.01953
G1 E-0.04165 F1800.000 ; pressure discharge
G1 E-1.50000 F1800.00000
G1 X111.900 Y111.895 F12000.000
G1 E1.50000 F1800.00000
G1 X109.100 Y111.895 E0.15276 F1200.000
G1 X109.100 Y92.698 E1.04722
G1 X109.063 Y92.347 E0.01923
G1 X108.945 Y91.982 E0.02096
G1 X108.752 Y91.649 E0.02096
G1 X108.495 Y91.364 E0.02096
G1 X108.185 Y91.138 E0.02096
G1 X107.834 Y90.981 E0.02096
G1 X107.458 Y90.902 E0.02096
G1 X92.543 Y90.902 E0.81364
G1 X92.167 Y90.981 E0.02096
G1 X91.816 Y91.138 E0.02096
G1 X91.505 Y91.364 E0.02096
G1 X91.248 Y91.649 E0.02096
G1 X91.056 Y91.982 E0.02096
G1 X90.937 Y92.347 E0.02096
G1 X90.900 Y92.698 E0.01923
G1 X90.900 Y111.895 E1.04722
G1 X88.100 Y111.895 E0.15276
G1 X88.100 Y89.526 E1.22024
G1 X88.134 Y89.204 E0.01765
G1 X88.224 Y88.927 E0.01593
G1 X88.370 Y88.674 E0.01593
G1 X88.566 Y88.457 E0.01593
G1 X88.802 Y88.285 E0.01593
G1 X89.069 Y88.166 E0.01593
G1 X89.354 Y88.106 E0.01593
G1 X110.646 Y88.106 E1.16151
G1 X110.901 Y88.160 E0.01421
G1 X111.203 Y88.288 E0.01789
G1 X111.435 Y88.457 E0.01565
G1 X111.630 Y88.674 E0.01593
G1 X111.776 Y88.927 E0.01593
G1 X111.867 Y89.204 E0.01593
G1 X111.900 Y89.526 E0.01765
G1 X111.900 Y111.835 E1.21697
G1 X112.275 Y112.270 F12000.000
G1 E0.02666 F1800.000 ; pressure advance
G1 X108.725 Y112.270 E0.19366 F960.000
G1 X108.725 Y92.717 E1.06660
G1 X108.695 Y92.426 E0.01601
G1 X108.600 Y92.135 E0.01666
G1 X108.447 Y91.871 E0.01666
G1 X108.243 Y91.644 E0.01666
G1 X107.996 Y91.464 E0.01666
G1 X107.717 Y91.340 E0.01666
G1 X107.418 Y91.276 E0.01666
G1 X92.582 Y91.276 E0.80934
G1 X92.283 Y91.340 E0.01666
G1 X92.004 Y91.464 E0.01666
G1 X91.757 Y91.644 E0.01666
G1 X91.553 Y91.871 E0.01666
G1 X91.400 Y92.135 E0.01666
G1 X91.306 Y92.426 E0.01666
G1 X91.275 Y92.717 E0.01601
G1 X91.275 Y112.270 E1.06660
G1 X87.725 Y112.270 E0.19366
G1 X87.725 Y89.506 E1.24176
G1 X87.765 Y89.126 E0.02088
G1 X87.880 Y88.773 E0.02023
G1 X88.065 Y88.452 E0.02023
G1 X88.313 Y88.177 E0.02023
G1 X88.613 Y87.959 E0.02023
G1 X88.952 Y87.808 E0.02023
G1 X89.315 Y87.731 E0.02022
G1 X110.686 Y87.731 E1.16581
G1 X111.014 Y87.801 E0.01833
G1 X111.389 Y87.960 E0.02219
G1 X111.687 Y88.177 E0.02013
G1 X111.935 Y88.452 E0.02023
G1 X112.121 Y88.773 E0.02023
G1 X112.235 Y89.126 E0.02023
G1 X112.275 Y89.506 E0.02088
G1 X112.275 Y112.210 E1.23849
G1 X111.929 Y112.070 F12000.000
G1 E-0.02666 F1800.000 ; pressure discharge
G1 E-1.50000 F1800.00000
G1 X88.818 Y88.737 F12000.000
G1 E1.50000 F1800.00000
G1 E0.03426 F1800.000 ; pressure advance
G1 X88.990 Y88.611 E0.01172 F1080.000
G1 X89.185 Y88.525 E0.01173
G1 X89.394 Y88.480 E0.01172
G1 X110.607 Y88.480 E1.16643
G1 X110.788 Y88.519 E0.01016
G1 X111.017 Y88.616 E0.01370
G1 X111.183 Y88.737 E0.01127
G1 X111.325 Y88.895 E0.01172
G1 X111.432 Y89.080 E0.01173
G1 X111.498 Y89.283 E0.01172
G1 X111.525 Y89.546 E0.01455
G1 X111.525 Y111.520 E1.20827
G1 X109.475 Y111.520 E0.11275
G1 X109.475 Y92.678 E1.03603
G1 X109.432 Y92.269 E0.02263
G1 X109.289 Y91.828 E0.02546
G1 X109.057 Y91.428 E0.02546
G1 X108.748 Y91.083 E0.02546
G1 X108.373 Y90.811 E0.02546
G1 X107.950 Y90.623 E0.02546
G1 X107.497 Y90.527 E0.02546
G1 X92.503 Y90.527 E0.82445
G1 X92.050 Y90.623 E0.02546
G1 X91.627 Y90.811 E0.02546
G1 X91.253 Y91.083 E0.02546
G1 X90.943 Y91.428 E0.02546
G1 X90.712 Y91.828 E0.02546
G1 X90.568 Y92.269 E0.02546
G1 X90.525 Y92.678 E0.02263
G1 X90.525 Y111.520 E1.03603
G1 X88.475 Y111.520 E0.11275
G1 X88.475 Y89.546 E1.20827
G1 X88.503 Y89.283 E0.01455
G1 X88.568 Y89.080 E0.01172
G1 X88.675 Y88.895 E0.01173
G1 X88.778 Y88.781 E0.00842
G1 X89.072 Y89.019 F12000.000
G1 X89.180 Y88.941 E0.00735 F1080.000
G1 X89.303 Y88.886 E0.00736
G1 X89.433 Y88.858 E0.00735
G1 X110.567 Y88.858 E1.16207
G1 X110.673 Y88.881 E0.00597
G1 X110.829 Y88.947 E0.00933
G1 X110.928 Y89.019 E0.00672
G1 X111.018 Y89.119 E0.00735
G1 X111.085 Y89.234 E0.00736
G1 X111.126 Y89.362 E0.00735
G1 X111.148 Y89.566 E0.01128
G1 X111.148 Y111.142 E1.18641
G1 X109.853 Y111.142 E0.07119
G1 X109.853 Y92.658 E1.01635
G1 X109.804 Y92.190 E0.02591
G1 X109.636 Y91.674 E0.02983
G1 X109.365 Y91.204 E0.02983
G1 X109.002 Y90.801 E0.02983
G1 X108.563 Y90.482 E0.02983
G1 X108.067 Y90.262 E0.02983
G1 X107.537 Y90.149 E0.02983
G1 X92.464 Y90.149 E0.82882
G1 X91.933 Y90.262 E0.02983
G1 X91.437 Y90.482 E0.02983
G1 X90.999 Y90.801 E0.02983
G1 X90.636 Y91.204 E0.02983
G1 X90.364 Y91.674 E0.02983
G1 X90.197 Y92.190 E0.02983
G1 X90.148 Y92.658 E0.02591
G1 X90.148 Y111.142 E1.01635
G1 X88.853 Y111.142 E0.07119
G1 X88.853 Y89.566 E1.18641
G1 X88.874 Y89.362 E0.01128
G1 X88.916 Y89.234 E0.00735
G1 X89.032 Y89.064 E0.01136
G1 X89.326 Y89.301 F12000.000
G1 X89.473 Y89.236 E0.00883 F1080.000
G1 X110.543 Y89.236 E1.15857
G1 X110.660 Y89.286 E0.00698
G1 X110.738 Y89.389 E0.00710
G1 X110.770 Y89.585 E0.01094
G1 X110.770 Y110.764 E1.16454
G1 X110.231 Y110.764 E0.02964
G1 X110.231 Y92.639 E0.99666
G1 X110.175 Y92.111 E0.02918
G1 X109.983 Y91.519 E0.03419
G1 X109.672 Y90.981 E0.03419
G1 X109.256 Y90.519 E0.03419
G1 X108.753 Y90.153 E0.03419
G1 X108.185 Y89.900 E0.03420
G1 X107.577 Y89.771 E0.03419
G1 X92.424 Y89.771 E0.83319
G1 X91.816 Y89.900 E0.03419
G1 X91.247 Y90.153 E0.03420
G1 X90.744 Y90.519 E0.03419
G1 X90.328 Y90.981 E0.03419
G1 X90.017 Y91.519 E0.03419
G1 X89.825 Y92.111 E0.03419
G1 X89.770 Y92.639 E0.02918
G1 X89.770 Y110.764 E0.99666
G1 X89.231 Y110.764 E0.02964
G1 X89.231 Y89.585 E1.16454
G1 X89.246 Y89.441 E0.00800
G1 X89.287 Y89.347 E0.00564
G1 E-0.03426 F1800.000 ; pressure discharge
G1 E-1.50000 F1800.00000
G1 X109.010 Y89.873 F12000.000
G1 E1.50000 F1800.00000
G1 X109.095 Y89.614 E0.01498 F1080.000
G1 X110.392 Y89.614 E0.07133
G1 X110.392 Y90.916 E0.07158
G1 X110.114 Y90.990 E0.01582
G1 X109.980 Y90.758 E0.01478
G1 X109.510 Y90.236 E0.03856
G1 X109.059 Y89.908 E0.03068
G1 E-1.50000 F1800.00000
G1 X90.990 Y89.873 F12000.000
G1 E1.50000 F1800.00000
G1 X90.490 Y90.236 E0.03398 F1080.000
G1 X90.021 Y90.758 E0.03856
G1 X89.886 Y90.990 E0.01478
G1 X89.609 Y90.916 E0.01582
G1 X89.609 Y89.614 E0.07158
G1 X90.906 Y89.614 E0.07133
G1 X90.972 Y89.816 E0.01168
M106 S252.45
G1 E-1.50000 F1800.00000
G1 Z0.550 F12000.000
G1 X111.868 Y111.863 F12000.000
G1 E1.50000 F1800.00000
G1 E0.10023 F1800.000 ; pressure advance
G1 X109.132 Y111.863 E0.09260 F3000.000
G1 X109.132 Y92.696 E0.64876
G1 X109.095 Y92.340 E0.01211
G1 X108.974 Y91.969 E0.01323
G1 X108.779 Y91.630 E0.01323
G1 X108.517 Y91.340 E0.01323
G1 X108.201 Y91.110 E0.01323
G1 X107.844 Y90.951 E0.01323
G1 X107.461 Y90.869 E0.01323
G1 X92.539 Y90.869 E0.50509
G1 X92.157 Y90.951 E0.01323
G1 X91.800 Y91.110 E0.01323
G1 X91.483 Y91.340 E0.01323
G1 X91.222 Y91.630 E0.01323
G1 X91.026 Y91.969 E0.01323
G1 X90.906 Y92.340 E0.01323
G1 X90.868 Y92.696 E0.01211
G1 X90.868 Y111.863 E0.64876
G1 X88.132 Y111.863 E0.09260
G1 X88.132 Y89.528 E0.75601
G1 X88.166 Y89.211 E0.01078
G1 X88.254 Y88.940 E0.00965
G1 X88.396 Y88.693 E0.00966
G1 X88.587 Y88.481 E0.00965
G1 X88.818 Y88.313 E0.00965
G1 X89.079 Y88.197 E0.00966
G1 X89.358 Y88.138 E0.00965
G1 X110.643 Y88.138 E0.72048
G1 X110.922 Y88.197 E0.00965
G1 X111.182 Y88.313 E0.00966
G1 X111.413 Y88.481 E0.00965
G1 X111.604 Y88.693 E0.00965
G1 X111.747 Y88.940 E0.00966
G1 X111.835 Y89.211 E0.00965
G1 X111.868 Y89.528 E0.01078
G1 X111.868 Y111.803 E0.75398
G1 X112.275 Y112.270 F12000.000
G1 E-0.03607 F1800.000 ; pressure advance
G1 X108.725 Y112.270 E0.12016 F2400.000
G1 X108.725 Y92.717 E0.66182
G1 X108.695 Y92.426 E0.00994
G1 X108.600 Y92.135 E0.01034
G1 X108.447 Y91.871 E0.01034
G1 X108.243 Y91.644 E0.01034
G1 X107.996 Y91.464 E0.01034
G1 X107.717 Y91.340 E0.01034
G1 X107.418 Y91.276 E0.01034
G1 X92.582 Y91.276 E0.50219
G1 X92.283 Y91.340 E0.01034
G1 X92.004 Y91.464 E0.01034
G1 X91.757 Y91.644 E0.01034
G1 X91.553 Y91.871 E0.01034
G1 X91.400 Y92.135 E0.01034
G1 X91.306 Y92.426 E0.01034
G1 X91.275 Y92.717 E0.00994
G1 X91.275 Y112.270 E0.66182
G1 X87.725 Y112.270 E0.12016
G1 X87.725 Y89.506 E0.77051
G1 X87.765 Y89.126 E0.01295
G1 X87.880 Y88.773 E0.01255
G1 X88.065 Y88.452 E0.01255
G1 X88.313 Y88.177 E0.01255
G1 X88.613 Y87.959 E0.01255
G1 X88.952 Y87.808 E0.01255
G1 X89.315 Y87.731 E0.01255
G1 X110.686 Y87.731 E0.72338
G1 X111.048 Y87.808 E0.01255
G1 X111.387 Y87.959 E0.01255
G1 X111.687 Y88.177 E0.01255
G1 X111.935 Y88.452 E0.01255
G1 X112.121 Y88.773 E0.01255
G1 X112.235 Y89.126 E0.01255
G1 X112.275 Y89.506 E0.01295
G1 X112.275 Y112.210 E0.76848
G1 X111.929 Y112.070 F12000.000
G1 E-0.06416 F1800.000 ; pressure discharge
G1 E-1.50000 F1800.00000
G1 X88.861 Y88.785 F12000.000
G1 E1.50000 F1800.00000
G1 E0.01616 F1800.000 ; pressure advance
G1 X89.023 Y88.668 E0.00679 F1200.000
G1 X89.205 Y88.586 E0.00680
G1 X89.400 Y88.545 E0.00679
G1 X110.600 Y88.545 E0.72153
G1 X110.772 Y88.581 E0.00598
G1 X110.981 Y88.670 E0.00772
G1 X111.139 Y88.785 E0.00667
G1 X111.273 Y88.933 E0.00679
G1 X111.373 Y89.106 E0.00680
G1 X111.434 Y89.296 E0.00679
G1 X111.461 Y89.549 E0.00866
G1 X111.461 Y111.456 E0.74558
G1 X109.539 Y111.456 E0.06541
G1 X109.539 Y92.675 E0.63920
G1 X109.495 Y92.255 E0.01435
G1 X109.348 Y91.802 E0.01622
G1 X109.110 Y91.389 E0.01622
G1 X108.791 Y91.035 E0.01622
G1 X108.405 Y90.755 E0.01622
G1 X107.970 Y90.561 E0.01622
G1 X107.504 Y90.462 E0.01622
G1 X92.497 Y90.462 E0.51077
G1 X92.030 Y90.561 E0.01622
G1 X91.595 Y90.755 E0.01622
G1 X91.210 Y91.035 E0.01622
G1 X90.891 Y91.389 E0.01622
G1 X90.652 Y91.802 E0.01622
G1 X90.505 Y92.255 E0.01622
G1 X90.461 Y92.675 E0.01436
G1 X90.461 Y111.456 E0.63920
G1 X88.539 Y111.456 E0.06541
G1 X88.539 Y89.549 E0.74558
G1 X88.566 Y89.296 E0.00866
G1 X88.628 Y89.106 E0.00679
G1 X88.728 Y88.933 E0.00680
G1 X88.821 Y88.829 E0.00475
G1 X89.137 Y89.091 F12000.000
G1 X89.332 Y88.978 E0.00769 F1200.000
G1 X89.443 Y88.954 E0.00387
G1 X110.557 Y88.954 E0.71860
G1 X110.778 Y89.028 E0.00794
G1 X110.864 Y89.091 E0.00361
G1 X110.997 Y89.274 E0.00770
G1 X111.032 Y89.382 E0.00387
G1 X111.052 Y89.571 E0.00647
G1 X111.052 Y111.046 E0.73092
G1 X109.949 Y111.046 E0.03754
G1 X109.949 Y92.653 E0.62600
G1 X109.898 Y92.170 E0.01655
G1 X109.724 Y91.635 E0.01915
G1 X109.443 Y91.148 E0.01915
G1 X109.066 Y90.729 E0.01915
G1 X108.611 Y90.399 E0.01915
G1 X108.097 Y90.170 E0.01915
G1 X107.547 Y90.053 E0.01915
G1 X92.454 Y90.053 E0.51370
G1 X91.903 Y90.170 E0.01915
G1 X91.389 Y90.399 E0.01915
G1 X90.934 Y90.729 E0.01915
G1 X90.558 Y91.148 E0.01915
G1 X90.276 Y91.635 E0.01915
G1 X90.103 Y92.170 E0.01915
G1 X90.052 Y92.653 E0.01655
G1 X90.052 Y111.046 E0.62600
G1 X88.949 Y111.046 E0.03754
G1 X88.949 Y89.571 E0.73092
G1 X88.969 Y89.382 E0.00647
G1 X89.004 Y89.274 E0.00387
G1 X89.096 Y89.135 E0.00567
G1 X89.382 Y89.363 F12000.000
G1 X91.976 Y89.363 E0.08828 F1200.000
G1 X92.014 Y89.728 E0.01247
G1 X91.776 Y89.779 E0.00828
G1 X91.183 Y90.042 E0.02208
G1 X90.659 Y90.424 E0.02208
G1 X90.225 Y90.906 E0.02208
G1 X89.900 Y91.467 E0.02208
G1 X89.701 Y92.080 E0.02192
G1 X89.358 Y92.026 E0.01183
G1 X89.358 Y89.592 E0.08282
G1 X89.376 Y89.423 E0.00578
G1 X89.767 Y89.773 F12000.000
G1 X90.694 Y89.773 E0.03154 F1200.000
G1 X89.767 Y90.802 E0.04714
G1 X89.767 Y89.833 E0.03299
G1 E-0.01616 F1800.000 ; pressure discharge
G1 E-1.50000 F1800.00000
G1 X107.986 Y89.728 F12000.000
G1 E1.50000 F1800.00000
G1 X108.025 Y89.363 E0.01248 F1200.000
G1 X110.618 Y89.363 E0.08828
G1 X110.642 Y89.592 E0.00782
G1 X110.642 Y92.026 E0.08283
G1 X110.299 Y92.080 E0.01183
G1 X110.100 Y91.467 E0.02192
G1 X109.776 Y90.906 E0.02208
G1 X109.342 Y90.424 E0.02208
G1 X108.817 Y90.042 E0.02208
G1 X108.224 Y89.779 E0.02208
G1 X108.045 Y89.740 E0.00624
G1 E-1.50000 F1800.00000
G1 X109.306 Y89.773 F12000.000
G1 E1.50000 F1800.00000
G1 X110.233 Y89.773 E0.03154 F1200.000
G1 X110.233 Y90.802 E0.03503
G1 X109.347 Y89.817 E0.04509
M106 S255
G1 E-1.50000 F1800.00000
G1 Z0.750 F12000.000
G1 X111.868 Y111.863 F12000.000
G1 E1.50000 F1800.00000
G1 E0.01546 F1800.000 ; pressure advance
G1 X111.132 Y111.863 E0.02491 F1178.396
G1 X111.132 Y90.696 E0.71646
G1 X111.095 Y90.340 E0.01210
G1 X110.972 Y89.962 E0.01346
G1 X110.755 Y89.604 E0.01419
G1 X110.517 Y89.340 E0.01204
G1 X110.201 Y89.110 E0.01323
G1 X109.844 Y88.951 E0.01323
G1 X109.461 Y88.869 E0.01323
G1 X90.539 Y88.869 E0.64048
G1 X90.157 Y88.951 E0.01323
G1 X89.800 Y89.110 E0.01323
G1 X89.483 Y89.340 E0.01323
G1 X89.222 Y89.630 E0.01323
G1 X89.026 Y89.969 E0.01324
G1 X88.906 Y90.340 E0.01323
G1 X88.868 Y90.696 E0.01210
G1 X88.868 Y111.863 E0.71646
G1 X88.132 Y111.863 E0.02491
G1 X88.132 Y89.528 E0.75601
G1 X88.166 Y89.211 E0.01078
G1 X88.254 Y88.940 E0.00965
G1 X88.396 Y88.693 E0.00966
G1 X88.587 Y88.481 E0.00965
G1 X88.818 Y88.313 E0.00965
G1 X89.079 Y88.197 E0.00966
G1 X89.358 Y88.138 E0.00965
G1 X110.643 Y88.138 E0.72048
G1 X110.922 Y88.197 E0.00965
G1 X111.182 Y88.313 E0.00966
G1 X111.413 Y88.481 E0.00965
G1 X111.604 Y88.693 E0.00965
G1 X111.747 Y88.940 E0.00966
G1 X111.835 Y89.211 E0.00965
G1 X111.868 Y89.528 E0.01078
G1 X111.868 Y111.803 E0.75398
G1 X112.275 Y112.270 F12000.000
G1 E-0.00556 F1800.000 ; pressure advance
G1 X110.725 Y112.270 E0.05247 F942.717
G1 X110.725 Y90.717 E0.72952
G1 X110.695 Y90.426 E0.00994
G1 X110.599 Y90.133 E0.01042
G1 X110.427 Y89.848 E0.01129
G1 X110.243 Y89.644 E0.00929
G1 X109.996 Y89.464 E0.01034
G1 X109.717 Y89.340 E0.01034
G1 X109.418 Y89.276 E0.01034
G1 X90.582 Y89.276 E0.63758
G1 X90.283 Y89.340 E0.01034
G1 X90.004 Y89.464 E0.01034
G1 X89.757 Y89.644 E0.01034
G1 X89.553 Y89.871 E0.01034
G1 X89.400 Y90.135 E0.01034
G1 X89.306 Y90.426 E0.01034
G1 X89.275 Y90.717 E0.00994
G1 X89.275 Y112.270 E0.72952
G1 X87.725 Y112.270 E0.05247
G1 X87.725 Y89.506 E0.77051
G1 X87.765 Y89.126 E0.01295
G1 X87.880 Y88.773 E0.01255
G1 X88.065 Y88.452 E0.01255
G1 X88.313 Y88.177 E0.01255
G1 X88.613 Y87.959 E0.01255
G1 X88.952 Y87.808 E0.01255
G1 X89.315 Y87.731 E0.01255
G1 X110.686 Y87.731 E0.72338
G1 X111.048 Y87.808 E0.01255
G1 X111.387 Y87.959 E0.01255
G1 X111.687 Y88.177 E0.01255
G1 X111.935 Y88.452 E0.01255
G1 X112.121 Y88.773 E0.01255
G1 X112.235 Y89.126 E0.01255
G1 X112.275 Y89.506 E0.01295
G1 X112.275 Y112.210 E0.76848
G1 X111.929 Y112.070 F12000.000
G1 X111.500 Y111.659 F12000.000
G1 X111.500 Y90.685 E1.49471 F942.717
G1 X111.483 Y90.353 E0.02375
G1 E-0.00990 F1800.000 ; pressure discharge
G1 E-1.50000 F1800.00000
G1 X109.690 Y88.524 F12000.000
G1 E1.50000 F1800.00000
G1 X109.483 Y88.504 E0.01483 F942.717
